X:1
T:China, CM
T:China, CM
T:Timothy Swan, 1800
T:Public Domain Courtesy of the Cyber Hymnal™
C:Timothy Swan, 1800
Z:Public Domain
Z:Courtesy of the Cyber Hymnal™
%%score ( 1 2 ) ( 3 4 )
L:1/8
M:3/4
K:Bb
V:1 treble 
V:2 treble 
V:3 bass 
V:4 bass 
V:1
 [Fd]2 | [Fc]4 [Ec]2 | [DB]4 [GB]2 | ([Fd]2 [EG]2) [EG]2 | [B,D]4 [DF]2 | [DF]4 (FG) | %6
 [EG]4 [EA]2 | [DB]4 [Fc]2 | (c3 d) (BG) | B4 ([Fd][DB]) | [Fd]4 ([Fc][=EB]) | [Fc]4 (DF) | %12
 [DB]4 ([Fd][DB]) | [EG]4 [EA]2 | [DB]4 |] %15
V:2
 x2 | x6 | x6 | x6 | x6 | x4 D2 | x6 | x6 | F4 D2 | (D2 G2) x2 | x6 | x4 B,2 | x6 | x6 | x4 |] %15
V:3
 [B,,B,]2 | [F,A,]4 [F,A,]2 | [G,B,]4 [E,B,]2 | [B,,B,]4 [B,,B,]2 | [B,,F,]4 [B,,B,]2 | %5
 [B,,B,]4 [B,,B,]2 | ([E,B,]2 [C,C]2) [F,C]2 | [B,,B,]4 [F,A,]2 | [F,A,]4 [G,B,]2 | [G,B,]4 B,2 | %10
 B,4 C2 | [F,A,]4 F,2 | [B,,F,]4 [B,,B,]2 | [E,B,]4 F,2 | [B,,F,]4 |] %15
V:4
 x2 | x6 | x6 | x6 | x6 | x6 | x6 | x6 | x6 | x4 B,2 | B,4 (A,G,) | x4 (F,D,) | x6 | x4 F,2 | x4 |] %15

